icons/svg/shield-keyhole.svg

<svg width="24" height="24" viewBox="0 0 24 24" fill="none" xmlns="http://www.w3.org/2000/svg">
<path d="M20.25 10.9073V7.27218C20.25 6.44316 19.6166 5.75063 18.7967 5.62795C17.8458 5.48568 16.6178 5.25249 15.7188 4.90625C14.812 4.55705 13.7215 3.89868 12.9566 3.4009C12.3775 3.02401 11.6225 3.02401 11.0434 3.4009C10.2785 3.89868 9.18795 4.55705 8.28125 4.90625C7.38223 5.25249 6.15419 5.48568 5.20332 5.62795C4.38343 5.75063 3.75 6.44316 3.75 7.27218V10.9073C3.75 12.6678 4.20883 14.398 5.08126 15.9272C6.02856 17.5876 7.42634 18.9461 9.11308 19.8457L9.34375 19.9688L11.3049 20.9147C11.7441 21.1266 12.2559 21.1266 12.6951 20.9147L14.6562 19.9688L14.8869 19.8457C16.5737 18.9461 17.9714 17.5876 18.9187 15.9272C19.7912 14.398 20.25 12.6678 20.25 10.9073Z" stroke="currentColor" stroke-width="1.5" stroke-linecap="round" stroke-linejoin="round"/>
<circle cx="12" cy="10.5" r="2" fill="currentColor"/>
<path d="M12 14.75V12.25" stroke="currentColor" stroke-width="1.5" stroke-linecap="round" stroke-linejoin="round"/>
</svg>

<svg xmlns="http://www.w3.org/2000/svg" width="24" height="24" fill="none" viewBox="0 0 24 24"><path stroke="currentColor" stroke-linecap="round" stroke-linejoin="round" stroke-width="1.5" d="M20.25 10.907V7.272c0-.829-.633-1.521-1.453-1.644-.951-.142-2.18-.376-3.078-.722-.907-.349-1.997-1.007-2.762-1.505a1.76 1.76 0 0 0-1.914 0c-.764.498-1.855 1.156-2.762 1.505-.899.346-2.127.58-3.078.722-.82.123-1.453.815-1.453 1.644v3.635a10.13 10.13 0 0 0 5.363 8.939l.23.123 1.962.946a1.6 1.6 0 0 0 1.39 0l1.961-.946.23-.123a10.13 10.13 0 0 0 5.364-8.939"/><circle cx="12" cy="10.5" r="2" fill="currentColor"/><path stroke="currentColor" stroke-linecap="round" stroke-linejoin="round" stroke-width="1.5" d="M12 14.75v-2.5"/></svg>
